X:495
T: Con Thadhgo's
T: Con Cronin's
S: "Johnny O'Leary of Sliabh Luachra" (#122)
Z: B.Black
L: 1/8
M: 6/8
R: jig
K: D
AFE F/G/FE|F/G/FE EDE|AFE F/G/FE|EDD D2B|
AFE F2E|EDE DdB|AFE F2E|EDC D3 :|
Adc dcd|ede fdB|A2A dAA|BAF E3|
Adc dcd|ede fdB|AFE F/G/FE|EDC D3 :|
